X: 1
T:1802 Station Fiddler's Reel
R:reel
C:Bruce Osborne - Sept. 2004
Z:abc by bosborne@kos.net
M:4/4
L:1/8
K:Amaj
ED|CA,CE A2 cd|efec A2 GA|BEEE dEEE|cEEE B2 ED|\
CA,CE A2 cd|efec A2 GA|BEEE BEEB|AGAB A2:|
|:cd|efec A2 CD|EFED E2 AB|ccec cfcc|BABc B2 cd|\
efec A2 CD|EFED E2 AB|cBAc BAGB|AGAB A2:|
